X:1
T:Title
T:Das Lied der Geige Canzona del Violino 
T:J. Schebek, Op. 2.
C:Composer
L:1/8
Q:1/4=52
M:4/4
K:G
V:1 treble nm="Piano" snm="Pno."
V:1
"^Andante""_espr."!p!!<(! vB,4 (A,2 B,2)!<)! |!>(! (G, !4!!0!G2 !4!F) (E2 D2)!>)! | %2
!<(! (C3 !2!B,) (A,2 ^A,2)!<)! | %3
!f! (!fermata!B,2- B,/4^A,/4B,/4!4!^D/4F/4B/4!<(!!1!^d/4"_rit."f/4 b/4!2!^d'/4f'/4!4!!0!b'/4) !fermata!b'2 z!<)! | %4
 z8 | z8 |!p!"_espr.""^con tenerezza" v!3!B4 (A2 B2) | (G3 !2!F) (E2 !2!e2) | (e3 d) (c!3!GE!1!G) | %9
 B4 A4 | (A3 B) (c2 e2) | (e2"^sul A" !(4)!b2- b)(uag!2!e) | (dB)(!2!FG) (!3!B3 A) | G8 | %14
 B4 (!2!F2 !4!A2) | (G3 F) (.E2 .e2) | (c^df!1!a)!<(! ((c'b)(^ab))!<)! | %17
!f!!>(! (!4!f'3 !4!^d') b4!>)! |!p! (!1!a2 c'2- c')(bae) | (cBA!1!E) (!3!B2 A2) | %20
 (G2 !1!F!1!G) !tenuto!B2 !tenuto!A2 | A8 |!f!!>(! (v!2!e2 !0!A2- A)(Bc!4!e)!>)! | B4 A4 | %24
!f!!>(! (!2!e2 !0!A2- A)(Bc!2!e)!>)! |!<(! g4 (f2 ed)!<)! | d'4 (!4!!0!e'2 d'2) | %27
 (d'2 c'2- c')(!0!e!2!ba) | (aged) (!2!FG!4!cB) | B4 A4 |!f!!>(! (v!2!e2 !0!A2- A)(Bc!4!e)!>)! | %31
!p! B4 A4 |!f!!>(! (!2!e2 !0!A2- A)!<(!(Bc!2!e)!>)!!<)! |!mf! g4 (f2 ed) |!<(! b4 (a2 !2!^g2)!<)! | %35
!f!!>(! (!4!d'2 c'2- c')(!0!e!2!ba)!>)! |!p! (!4!!0!a!4!=ged) (!2!FG!4!cB) | %37
 (BA!4!FD) (CD"^sul G"!(4)!AG) | G6"_poco      a      poco      dim." (!4!A>!4!!0!d) | %39
 d6 (!3!^d>!4!g) | g6 (!1!a>!2!d') | d'6 (!3!^d'>!4!g') | %42
"_dolcissimo""^riten"!>(! g'4 (!tenuto!g'2 !tenuto!g'2)!>)! |"_morendo"!pp! !fermata!g'8 |] %44

